resources/apps/sayonara.svg

<?xml version="1.0" encoding="UTF-8" standalone="no"?>
<!-- Generator: Gravit.io -->

<svg
   xmlns:dc="http://purl.org/dc/elements/1.1/"
   xmlns:cc="http://creativecommons.org/ns#"
   xmlns:rdf="http://www.w3.org/1999/02/22-rdf-syntax-ns#"
   xmlns:svg="http://www.w3.org/2000/svg"
   xmlns="http://www.w3.org/2000/svg"
   xmlns:sodipodi="http://sodipodi.sourceforge.net/DTD/sodipodi-0.dtd"
   xmlns:inkscape="http://www.inkscape.org/namespaces/inkscape"
   style="isolation:isolate"
   viewBox="0 0 180 130"
   width="180pt"
   height="130pt"
   version="1.1"
   id="svg35"
   sodipodi:docname="sayonara.svg"
   inkscape:version="0.92.4 (5da689c313, 2019-01-14)">
  <metadata
     id="metadata39">
    <rdf:RDF>
      <cc:Work
         rdf:about="">
        <dc:format>image/svg+xml</dc:format>
        <dc:type
           rdf:resource="http://purl.org/dc/dcmitype/StillImage" />
      </cc:Work>
    </rdf:RDF>
  </metadata>
  <sodipodi:namedview
     pagecolor="#ffffff"
     bordercolor="#666666"
     borderopacity="1"
     objecttolerance="10"
     gridtolerance="10"
     guidetolerance="10"
     inkscape:pageopacity="0"
     inkscape:pageshadow="2"
     inkscape:window-width="1360"
     inkscape:window-height="728"
     id="namedview37"
     showgrid="false"
     inkscape:zoom="1.3615385"
     inkscape:cx="120"
     inkscape:cy="86.666667"
     inkscape:window-x="0"
     inkscape:window-y="0"
     inkscape:window-maximized="1"
     inkscape:current-layer="svg35" />
  <defs
     id="defs5">
    <clipPath
       id="_clipPath_pPNOtSMD2MJgs4IWQMjcvGFQZUnvkpRl">
      <rect
         width="180"
         height="130"
         id="rect2" />
    </clipPath>
  </defs>
  <rect
     style="vector-effect:non-scaling-stroke;fill:#cc6821;stroke:#ffffff;stroke-width:1.02199996;stroke-linecap:butt;stroke-linejoin:miter;stroke-miterlimit:2"
     id="rect7"
     stroke-miterlimit="2"
     height="131.689"
     width="182.162"
     y="-1.0829999"
     x="-0.94499999" />
  <g
     id="g31"
     transform="matrix(0.94247291,0,0,0.93140364,3.9727717,3.4439362)">
    <g
       id="g11"
       style="opacity:0.2;mix-blend-mode:normal">
      <path
         inkscape:connector-curvature="0"
         id="path9"
         style="fill:#000000;stroke:none;stroke-miterlimit:10"
         d="m 52.642,23.821 h 77.561 c 2.378,0 4.309,1.931 4.309,4.309 v 77.561 c 0,2.378 -1.931,4.309 -4.309,4.309 H 52.642 c -2.378,0 -4.309,-1.931 -4.309,-4.309 V 28.13 c 0,-2.378 1.931,-4.309 4.309,-4.309 z" />
    </g>
    <path
       inkscape:connector-curvature="0"
       id="path13"
       style="fill:#4f4f4f;stroke:none;stroke-miterlimit:10"
       d="m 52.642,21.667 h 77.561 c 2.378,0 4.309,1.93 4.309,4.309 v 77.561 c 0,2.378 -1.931,4.309 -4.309,4.309 H 52.642 c -2.378,0 -4.309,-1.931 -4.309,-4.309 V 25.976 c 0,-2.379 1.931,-4.309 4.309,-4.309 z" />
    <g
       style="opacity:0.1"
       id="g17">
      <path
         style="fill:#ffffff"
         inkscape:connector-curvature="0"
         id="path15"
         d="m 52.642,21.667 c -2.387,0 -4.309,1.921 -4.309,4.309 v 2.154 c 0,-2.387 1.922,-4.309 4.309,-4.309 h 77.561 c 2.387,0 4.309,1.922 4.309,4.309 v -2.154 c 0,-2.388 -1.922,-4.309 -4.309,-4.309 z" />
    </g>
    <g
       style="opacity:0.2"
       id="g21">
      <path
         style="fill:#000000"
         inkscape:connector-curvature="0"
         id="path19"
         d="m 65.569,32.532 c -4.759,0 -8.618,3.858 -8.618,8.617 0,4.76 3.859,8.618 8.618,8.618 4.76,0 8.618,-3.858 8.618,-8.618 0,-4.759 -3.858,-8.617 -8.618,-8.617 z m 25.854,0.122 c -4.775,0 -8.618,3.843 -8.618,8.618 0,4.774 3.843,8.617 8.618,8.617 h 25.853 c 4.775,0 8.618,-3.843 8.618,-8.617 0,-4.775 -3.843,-8.618 -8.618,-8.618 z M 65.569,58.171 c -4.759,0 -8.618,3.858 -8.618,8.618 0,4.759 3.859,8.617 8.618,8.617 4.76,0 8.618,-3.858 8.618,-8.617 0,-4.76 -3.858,-8.618 -8.618,-8.618 z m 25.854,0.122 c -4.775,0 -8.618,3.843 -8.618,8.618 0,4.774 3.843,8.617 8.618,8.617 h 25.853 c 4.775,0 8.618,-3.843 8.618,-8.617 0,-4.775 -3.843,-8.618 -8.618,-8.618 z M 65.569,84.024 c -4.759,0 -8.618,3.859 -8.618,8.618 0,4.76 3.859,8.618 8.618,8.618 4.76,0 8.618,-3.858 8.618,-8.618 0,-4.759 -3.858,-8.618 -8.618,-8.618 z m 25.854,0.122 c -4.775,0 -8.618,3.844 -8.618,8.618 0,4.775 3.843,8.618 8.618,8.618 h 25.853 c 4.775,0 8.618,-3.843 8.618,-8.618 0,-4.774 -3.843,-8.618 -8.618,-8.618 z" />
    </g>
    <g
       id="g29">
      <path
         style="fill:#ffffff"
         inkscape:connector-curvature="0"
         id="path23"
         d="m 65.569,56.016 c -4.759,0 -8.618,3.859 -8.618,8.618 0,4.76 3.859,8.618 8.618,8.618 4.76,0 8.618,-3.858 8.618,-8.618 0,-4.759 -3.858,-8.618 -8.618,-8.618 z m 25.854,0.122 c -4.775,0 -8.618,3.844 -8.618,8.618 0,4.774 3.843,8.618 8.618,8.618 h 25.853 c 4.775,0 8.618,-3.844 8.618,-8.618 0,-4.774 -3.843,-8.618 -8.618,-8.618 z" />
      <path
         style="fill:#ff9448"
         inkscape:connector-curvature="0"
         id="path25"
         d="m 65.569,81.87 c -4.759,0 -8.618,3.858 -8.618,8.618 0,4.759 3.859,8.618 8.618,8.618 4.76,0 8.618,-3.859 8.618,-8.618 0,-4.76 -3.858,-8.618 -8.618,-8.618 z m 25.854,0.122 c -4.775,0 -8.618,3.843 -8.618,8.618 0,4.774 3.843,8.618 8.618,8.618 h 25.853 c 4.775,0 8.618,-3.844 8.618,-8.618 0,-4.775 -3.843,-8.618 -8.618,-8.618 z" />
      <path
         style="fill:#ffffff"
         inkscape:connector-curvature="0"
         id="path27"
         d="m 65.569,30.378 c -4.759,0 -8.618,3.858 -8.618,8.618 0,4.759 3.859,8.618 8.618,8.618 4.76,0 8.618,-3.859 8.618,-8.618 0,-4.76 -3.858,-8.618 -8.618,-8.618 z M 91.423,30.5 c -4.775,0 -8.618,3.844 -8.618,8.618 0,4.774 3.843,8.618 8.618,8.618 h 25.853 c 4.775,0 8.618,-3.844 8.618,-8.618 0,-4.774 -3.843,-8.618 -8.618,-8.618 z" />
    </g>
  </g>
</svg>

<?xml version="1.0" encoding="UTF-8" standalone="no"?><!-- Generator: Gravit.io --><svg xmlns="http://www.w3.org/2000/svg" xmlns:xlink="http://www.w3.org/1999/xlink" style="isolation:isolate" viewBox="0 0 180 130" width="180pt" height="130pt"><defs><clipPath id="_clipPath_pPNOtSMD2MJgs4IWQMjcvGFQZUnvkpRl"><rect width="180" height="130"/></clipPath></defs><g clip-path="url(#_clipPath_pPNOtSMD2MJgs4IWQMjcvGFQZUnvkpRl)"><rect x="-0.945" y="-1.083" width="182.162" height="131.689" transform="matrix(1,0,0,1,0,0)" fill="rgb(204,104,33)" vector-effect="non-scaling-stroke" stroke-width="1.022" stroke="rgb(255,255,255)" stroke-linejoin="miter" stroke-linecap="butt" stroke-miterlimit="2"/><g><g style="mix-blend-mode:normal;" opacity="0.2"><path d="M 52.642 23.821 L 130.203 23.821 C 132.581 23.821 134.512 25.752 134.512 28.13 L 134.512 105.691 C 134.512 108.069 132.581 110 130.203 110 L 52.642 110 C 50.264 110 48.333 108.069 48.333 105.691 L 48.333 28.13 C 48.333 25.752 50.264 23.821 52.642 23.821 Z" style="stroke:none;fill:#000000;stroke-miterlimit:10;"/></g><path d="M 52.642 21.667 L 130.203 21.667 C 132.581 21.667 134.512 23.597 134.512 25.976 L 134.512 103.537 C 134.512 105.915 132.581 107.846 130.203 107.846 L 52.642 107.846 C 50.264 107.846 48.333 105.915 48.333 103.537 L 48.333 25.976 C 48.333 23.597 50.264 21.667 52.642 21.667 Z" style="stroke:none;fill:#4F4F4F;stroke-miterlimit:10;"/><g opacity="0.1"><path d=" M 52.642 21.667 C 50.255 21.667 48.333 23.588 48.333 25.976 L 48.333 28.13 C 48.333 25.743 50.255 23.821 52.642 23.821 L 130.203 23.821 C 132.59 23.821 134.512 25.743 134.512 28.13 L 134.512 25.976 C 134.512 23.588 132.59 21.667 130.203 21.667 L 52.642 21.667 Z " fill="rgb(255,255,255)"/></g><g opacity="0.2"><path d=" M 65.569 32.532 C 60.81 32.532 56.951 36.39 56.951 41.149 C 56.951 45.909 60.81 49.767 65.569 49.767 C 70.329 49.767 74.187 45.909 74.187 41.149 C 74.187 36.39 70.329 32.532 65.569 32.532 Z  M 91.423 32.654 C 86.648 32.654 82.805 36.497 82.805 41.272 C 82.805 46.046 86.648 49.889 91.423 49.889 L 117.276 49.889 C 122.051 49.889 125.894 46.046 125.894 41.272 C 125.894 36.497 122.051 32.654 117.276 32.654 L 91.423 32.654 Z  M 65.569 58.171 C 60.81 58.171 56.951 62.029 56.951 66.789 C 56.951 71.548 60.81 75.406 65.569 75.406 C 70.329 75.406 74.187 71.548 74.187 66.789 C 74.187 62.029 70.329 58.171 65.569 58.171 Z  M 91.423 58.293 C 86.648 58.293 82.805 62.136 82.805 66.911 C 82.805 71.685 86.648 75.528 91.423 75.528 L 117.276 75.528 C 122.051 75.528 125.894 71.685 125.894 66.911 C 125.894 62.136 122.051 58.293 117.276 58.293 L 91.423 58.293 Z  M 65.569 84.024 C 60.81 84.024 56.951 87.883 56.951 92.642 C 56.951 97.402 60.81 101.26 65.569 101.26 C 70.329 101.26 74.187 97.402 74.187 92.642 C 74.187 87.883 70.329 84.024 65.569 84.024 Z  M 91.423 84.146 C 86.648 84.146 82.805 87.99 82.805 92.764 C 82.805 97.539 86.648 101.382 91.423 101.382 L 117.276 101.382 C 122.051 101.382 125.894 97.539 125.894 92.764 C 125.894 87.99 122.051 84.146 117.276 84.146 L 91.423 84.146 Z " fill="rgb(0,0,0)"/></g><g><path d=" M 65.569 56.016 C 60.81 56.016 56.951 59.875 56.951 64.634 C 56.951 69.394 60.81 73.252 65.569 73.252 C 70.329 73.252 74.187 69.394 74.187 64.634 C 74.187 59.875 70.329 56.016 65.569 56.016 Z  M 91.423 56.138 C 86.648 56.138 82.805 59.982 82.805 64.756 C 82.805 69.53 86.648 73.374 91.423 73.374 L 117.276 73.374 C 122.051 73.374 125.894 69.53 125.894 64.756 C 125.894 59.982 122.051 56.138 117.276 56.138 L 91.423 56.138 Z " fill="rgb(255,255,255)"/><path d=" M 65.569 81.87 C 60.81 81.87 56.951 85.728 56.951 90.488 C 56.951 95.247 60.81 99.106 65.569 99.106 C 70.329 99.106 74.187 95.247 74.187 90.488 C 74.187 85.728 70.329 81.87 65.569 81.87 Z  M 91.423 81.992 C 86.648 81.992 82.805 85.835 82.805 90.61 C 82.805 95.384 86.648 99.228 91.423 99.228 L 117.276 99.228 C 122.051 99.228 125.894 95.384 125.894 90.61 C 125.894 85.835 122.051 81.992 117.276 81.992 L 91.423 81.992 Z " fill="rgb(255,148,72)"/><path d=" M 65.569 30.378 C 60.81 30.378 56.951 34.236 56.951 38.996 C 56.951 43.755 60.81 47.614 65.569 47.614 C 70.329 47.614 74.187 43.755 74.187 38.996 C 74.187 34.236 70.329 30.378 65.569 30.378 Z  M 91.423 30.5 C 86.648 30.5 82.805 34.344 82.805 39.118 C 82.805 43.892 86.648 47.736 91.423 47.736 L 117.276 47.736 C 122.051 47.736 125.894 43.892 125.894 39.118 C 125.894 34.344 122.051 30.5 117.276 30.5 L 91.423 30.5 Z " fill="rgb(255,255,255)"/></g></g></g></svg>
